X:2
T:Auld Lang Syne
S:, heard on Thistle and Shamrock and possibly misremembered
N: (AK)This is the Tannahill Weavers (IV) version
Z:Jerome Colburn
M:2/4
L:1/8
K:D
DE | F3 G | A2 F2 | E3 D | D3 D | D2 d2 | c2 d2 | B4 |-B2  \
Bc | d3 d | c2 BA | B3 A | E4 |-E2 \
dc | B3 A | FEFA | B4 |-B2 :|**
